actions/24/fcitx-chewing.svg

<?xml version="1.0" encoding="UTF-8" standalone="no"?>
<svg
   width="24"
   height="24"
   version="1.1"
   id="svg9"
   sodipodi:docname="fcitx-chewing.svg"
   inkscape:version="1.1.2 (0a00cf5339, 2022-02-04)"
   xmlns:inkscape="http://www.inkscape.org/namespaces/inkscape"
   xmlns:sodipodi="http://sodipodi.sourceforge.net/DTD/sodipodi-0.dtd"
   xmlns="http://www.w3.org/2000/svg"
   xmlns:svg="http://www.w3.org/2000/svg">
  <sodipodi:namedview
     id="namedview11"
     pagecolor="#000000"
     bordercolor="#666666"
     borderopacity="1.0"
     inkscape:pageshadow="2"
     inkscape:pageopacity="0"
     inkscape:pagecheckerboard="0"
     showgrid="false"
     inkscape:zoom="113.66667"
     inkscape:cx="11.995601"
     inkscape:cy="9.8269795"
     inkscape:window-width="1596"
     inkscape:window-height="967"
     inkscape:window-x="0"
     inkscape:window-y="29"
     inkscape:window-maximized="1"
     inkscape:current-layer="g7" />
  <defs
     id="defs3">
    <style
       id="current-color-scheme"
       type="text/css">
   .ColorScheme-Text { color:#eeeeec; } .ColorScheme-Highlight { color:#367bf0; } .ColorScheme-NeutralText { color:#ffcc44; } .ColorScheme-PositiveText { color:#3db47e; } .ColorScheme-NegativeText { color:#dd4747; }
  </style>
  </defs>
  <g
     transform="matrix(1,0,0,1,4,4)"
     id="g7">
    <path
       class="ColorScheme-Text"
       d="M 2,0 C 0.892,0 0,0.892 0,2 v 12 c 0,1.108 0.892,2 2,2 h 12 c 1.108,0 2,-0.892 2,-2 V 2 C 16,0.892 15.108,0 14,0 Z M 2,2 H 8 V 3 H 6 V 6 H 7.5 7.651698 L 8,6.3325412 V 6 L 7.7137894,5.7849847 v 0 c 0,0 -0.079236,-0.1344361 -0.020373,-0.2232672 C 8.0071346,5.0882781 9,3.4735239 9,2 h 1 c 0,0.6229509 -0.1277963,1.2237268 -0.3063718,1.7751611 -0.024581,0.075905 0.026304,-0.073964 0,0 L 9.9209944,4 H 11 V 2 h 1 v 2 h 2 v 1 h -2 v 2 h 2 V 8 H 9 V 7 h 2 V 5 H 9.1973 C 8.9265303,5.5362422 8.6559912,5.9440808 8.5102538,6.1505964 c -0.068856,0.097572 0,0 0,0 L 8.2552486,6.1917552 8,6 V 6.3325412 14 H 2 V 6 H 3 V 3 H 2 Z M 4,3 V 6 H 5 V 3 Z m 0,4 v 3 H 3 v 1 h 3 v 1 H 3 v 1 H 7 V 7 H 6 v 3 H 5 V 7 Z m 5,2 h 5 v 5 H 9 Z m 1,1 v 3 h 3 v -3 z"
       style="fill:currentColor"
       id="path5"
       sodipodi:nodetypes="ssssssssscccccccccccsccscccccccccccccccccsccccccccccccccccccccccccccccccccccccccccc" />
  </g>
</svg>

<svg xmlns="http://www.w3.org/2000/svg" width="24" height="24" version="1.1">
 <defs>
  <style id="current-color-scheme" type="text/css">
   .ColorScheme-Text { color:#eeeeec; } .ColorScheme-Highlight { color:#367bf0; } .ColorScheme-NeutralText { color:#ffcc44; } .ColorScheme-PositiveText { color:#3db47e; } .ColorScheme-NegativeText { color:#dd4747; }
  </style>
 </defs>
 <g transform="matrix(1,0,0,1,4,4)">
  <path class="ColorScheme-Text" d="M 2,0 C 0.892,0 0,0.892 0,2 V 14 C 0,15.108 0.892,16 2,16 H 14 C 15.108,16 16,15.108 16,14 V 2 C 16,0.892 15.108,0 14,0 Z M 2,2 H 8 V 3 H 6 V 6 H 7.5 8 L 7.5996,5.6992 C 7.5996,5.6992 9,3.75 9,2 H 10 C 10,2.7087 9.8346,3.3887 9.6172,4 H 11 V 2 H 12 V 4 H 14 V 5 H 12 V 7 H 14 V 8 H 9 V 7 H 11 V 5 H 9.1973 C 8.7986,5.7896 8.4004,6.3008 8.4004,6.3008 L 8,6 V 14 H 2 V 6 H 3 V 3 H 2 Z M 4,3 V 6 H 5 V 3 Z M 4,7 V 10 H 3 V 11 H 6 V 12 H 3 V 13 H 7 V 7 H 6 V 10 H 5 V 7 Z M 9,9 H 14 V 14 H 9 Z M 10,10 V 13 H 13 V 10 Z" style="fill:currentColor"/>
 </g>
</svg>
